telma/img/buttons/mode/point.svg

<?xml version="1.0" encoding="UTF-8" standalone="no"?>
<!-- Created with Inkscape (http://www.inkscape.org/) -->
<svg
   xmlns:dc="http://purl.org/dc/elements/1.1/"
   xmlns:cc="http://creativecommons.org/ns#"
   xmlns:rdf="http://www.w3.org/1999/02/22-rdf-syntax-ns#"
   xmlns:svg="http://www.w3.org/2000/svg"
   xmlns="http://www.w3.org/2000/svg"
   xmlns:xlink="http://www.w3.org/1999/xlink"
   xmlns:sodipodi="http://sodipodi.sourceforge.net/DTD/sodipodi-0.dtd"
   xmlns:inkscape="http://www.inkscape.org/namespaces/inkscape"
   width="600"
   height="600"
   id="svg2"
   sodipodi:version="0.32"
   inkscape:version="0.46"
   version="1.0"
   sodipodi:docname="Mouse.svg"
   inkscape:output_extension="org.inkscape.output.svg.inkscape"
   inkscape:export-filename="P:\TELMA.V20\telma.v20_10_11\Projects\Interfaces\BaseInterface\panels\SelectorModePanel\images\Mouse.png"
   inkscape:export-xdpi="4.9848137"
   inkscape:export-ydpi="4.9848137">
  <sodipodi:namedview
     id="base"
     pagecolor="#ffffff"
     bordercolor="#666666"
     borderopacity="1.0"
     gridtolerance="10000"
     guidetolerance="10"
     objecttolerance="10"
     inkscape:pageopacity="0.0"
     inkscape:pageshadow="2"
     inkscape:zoom="0.98994948"
     inkscape:cx="87.996902"
     inkscape:cy="361.97477"
     inkscape:document-units="px"
     inkscape:current-layer="layer1"
     showgrid="false"
     showguides="true"
     inkscape:showpageshadow="false"
     inkscape:window-width="1029"
     inkscape:window-height="676"
     inkscape:window-x="108"
     inkscape:window-y="140"
     showborder="true">
    <inkscape:grid
       id="grid2393"
       enabled="true"
       visible="true"
       type="xygrid" />
  </sodipodi:namedview>
  <defs
     id="defs4">
    <linearGradient
       gradientUnits="userSpaceOnUse"
       y2="-164.88156"
       x2="93.661781"
       y1="-114.4881"
       x1="-13.971276"
       id="linearGradient3261"
       xlink:href="#linearGradient3253"
       inkscape:collect="always" />
    <linearGradient
       id="linearGradient3267">
      <stop
         id="stop3269"
         offset="0"
         style="stop-color:#ff0000;stop-opacity:1;" />
      <stop
         id="stop3271"
         offset="1"
         style="stop-color:#ff0000;stop-opacity:0;" />
    </linearGradient>
    <linearGradient
       gradientTransform="matrix(0.4886094,-3.0688775,0.4738435,3.1645097,205.26578,110.21985)"
       gradientUnits="userSpaceOnUse"
       y2="121.43824"
       x2="131.75237"
       y1="130.17917"
       x1="123.15675"
       id="linearGradient3273"
       xlink:href="#linearGradient3267"
       inkscape:collect="always" />
    <marker
       style="overflow:visible"
       id="Club"
       refX="0.0"
       refY="0.0"
       orient="auto"
       inkscape:stockid="Club">
      <path
         transform="scale(0.6)"
         style="fill-rule:evenodd;stroke:#000000;stroke-width:0.74587913pt;marker-start:none"
         d="M -1.5971367,-7.0977635 C -3.4863874,-7.0977635 -5.0235187,-5.5606321 -5.0235187,-3.6713813 C -5.0235187,-3.0147015 -4.7851656,-2.4444556 -4.4641095,-1.9232271 C -4.5028609,-1.8911157 -4.5437814,-1.8647646 -4.5806531,-1.8299921 C -5.2030765,-2.6849849 -6.1700514,-3.2751330 -7.3077730,-3.2751330 C -9.1970245,-3.2751331 -10.734155,-1.7380016 -10.734155,0.15124914 C -10.734155,2.0404999 -9.1970245,3.5776313 -7.3077730,3.5776313 C -6.3143268,3.5776313 -5.4391540,3.1355702 -4.8137404,2.4588126 C -4.9384274,2.8137041 -5.0235187,3.1803000 -5.0235187,3.5776313 C -5.0235187,5.4668819 -3.4863874,7.0040135 -1.5971367,7.0040135 C 0.29211394,7.0040135 1.8292454,5.4668819 1.8292454,3.5776313 C 1.8292454,2.7842354 1.5136868,2.0838028 1.0600576,1.5031550 C 2.4152718,1.7663868 3.7718375,2.2973711 4.7661444,3.8340272 C 4.0279463,3.0958289 3.5540908,1.7534117 3.5540908,-0.058529361 L 2.9247554,-0.10514681 L 3.5074733,-0.12845553 C 3.5074733,-1.9403966 3.9580199,-3.2828138 4.6962183,-4.0210121 C 3.7371277,-2.5387813 2.4390549,-1.9946496 1.1299838,-1.7134486 C 1.5341802,-2.2753578 1.8292454,-2.9268556 1.8292454,-3.6713813 C 1.8292454,-5.5606319 0.29211394,-7.0977635 -1.5971367,-7.0977635 z "
         id="path3497" />
    </marker>
    <marker
       style="overflow:visible"
       id="TriangleOutL"
       refX="0.0"
       refY="0.0"
       orient="auto"
       inkscape:stockid="TriangleOutL">
      <path
         transform="scale(0.8)"
         style="fill-rule:evenodd;stroke:#000000;stroke-width:1.0pt;marker-start:none"
         d="M 5.77,0.0 L -2.88,5.0 L -2.88,-5.0 L 5.77,0.0 z "
         id="path3410" />
    </marker>
    <marker
       style="overflow:visible;"
       id="Arrow1Mend"
       refX="0.0"
       refY="0.0"
       orient="auto"
       inkscape:stockid="Arrow1Mend">
      <path
         transform="scale(0.4) rotate(180) translate(10,0)"
         style="fill-rule:evenodd;stroke:#000000;stroke-width:1.0pt;marker-start:none;"
         d="M 0.0,0.0 L 5.0,-5.0 L -12.5,0.0 L 5.0,5.0 L 0.0,0.0 z "
         id="path3276" />
    </marker>
    <marker
       style="overflow:visible;"
       id="Arrow2Lend"
       refX="0.0"
       refY="0.0"
       orient="auto"
       inkscape:stockid="Arrow2Lend">
      <path
         transform="scale(1.1) rotate(180) translate(1,0)"
         d="M 8.7185878,4.0337352 L -2.2072895,0.016013256 L 8.7185884,-4.0017078 C 6.9730900,-1.6296469 6.9831476,1.6157441 8.7185878,4.0337352 z "
         style="font-size:12.0;fill-rule:evenodd;stroke-width:0.62500000;stroke-linejoin:round;"
         id="path3288" />
    </marker>
    <marker
       style="overflow:visible;"
       id="Arrow1Lend"
       refX="0.0"
       refY="0.0"
       orient="auto"
       inkscape:stockid="Arrow1Lend">
      <path
         transform="scale(0.8) rotate(180) translate(12.5,0)"
         style="fill-rule:evenodd;stroke:#000000;stroke-width:1.0pt;marker-start:none;"
         d="M 0.0,0.0 L 5.0,-5.0 L -12.5,0.0 L 5.0,5.0 L 0.0,0.0 z "
         id="path3270" />
    </marker>
    <linearGradient
       id="linearGradient3220">
      <stop
         id="stop3222"
         offset="0"
         style="stop-color:#ff0000;stop-opacity:1;" />
      <stop
         id="stop3224"
         offset="1"
         style="stop-color:#ff0000;stop-opacity:0;" />
    </linearGradient>
    <linearGradient
       id="linearGradient3253">
      <stop
         id="stop3255"
         offset="0"
         style="stop-color:#ff0000;stop-opacity:1;" />
      <stop
         id="stop3257"
         offset="1"
         style="stop-color:#ff0000;stop-opacity:0;" />
    </linearGradient>
    <linearGradient
       id="linearGradient4618">
      <stop
         id="stop4620"
         offset="0"
         style="stop-color:#0088ff;stop-opacity:0.70355731;" />
      <stop
         id="stop4622"
         offset="1"
         style="stop-color:#ffffff;stop-opacity:0;" />
    </linearGradient>
    <linearGradient
       id="linearGradient3176">
      <stop
         style="stop-color:#ff0000;stop-opacity:1;"
         offset="0"
         id="stop3178" />
      <stop
         style="stop-color:#00d63b;stop-opacity:0;"
         offset="1"
         id="stop3180" />
    </linearGradient>
    <linearGradient
       id="linearGradient3170">
      <stop
         id="stop3172"
         offset="0"
         style="stop-color:#ff0000;stop-opacity:1;" />
      <stop
         id="stop3174"
         offset="1"
         style="stop-color:#00d63b;stop-opacity:0;" />
    </linearGradient>
    <linearGradient
       id="linearGradient3164">
      <stop
         style="stop-color:#ff0000;stop-opacity:1;"
         offset="0"
         id="stop3166" />
      <stop
         style="stop-color:#00d63b;stop-opacity:0;"
         offset="1"
         id="stop3168" />
    </linearGradient>
    <linearGradient
       id="linearGradient5422">
      <stop
         id="stop5424"
         offset="0"
         style="stop-color:#ff0000;stop-opacity:1;" />
      <stop
         id="stop5426"
         offset="1"
         style="stop-color:#00d63b;stop-opacity:0;" />
    </linearGradient>
    <inkscape:perspective
       id="perspective10"
       inkscape:persp3d-origin="372.04724 : 350.78739 : 1"
       inkscape:vp_z="744.09448 : 526.18109 : 1"
       inkscape:vp_y="6.1230318e-14 : 1000 : 0"
       inkscape:vp_x="0 : 526.18109 : 1"
       sodipodi:type="inkscape:persp3d" />
    <linearGradient
       gradientTransform="matrix(0.4886094,-3.0688775,0.4738435,3.1645097,205.26578,110.21985)"
       gradientUnits="userSpaceOnUse"
       y2="118.41389"
       x2="134.68532"
       y1="129.2486"
       x1="124.0592"
       id="linearGradient3273-663"
       xlink:href="#linearGradient3267-805"
       inkscape:collect="always" />
    <linearGradient
       id="linearGradient3267-805">
      <stop
         id="stop3279"
         offset="0"
         style="stop-color:#e60000;stop-opacity:1;" />
      <stop
         id="stop3281"
         offset="1"
         style="stop-color:#e60000;stop-opacity:0;" />
    </linearGradient>
  </defs>
  <metadata
     id="metadata7">
    <rdf:RDF>
      <cc:Work
         rdf:about="">
        <dc:format>image/svg+xml</dc:format>
        <dc:type
           rdf:resource="http://purl.org/dc/dcmitype/StillImage" />
      </cc:Work>
    </rdf:RDF>
  </metadata>
  <g
     id="layer1"
     inkscape:groupmode="layer"
     inkscape:label="Layer 1">
    <rect
       style="opacity:1;fill:none;fill-opacity:1;stroke:none;stroke-width:1;stroke-linecap:round;stroke-linejoin:miter;stroke-miterlimit:4;stroke-dasharray:none;stroke-dashoffset:0;stroke-opacity:1"
       id="rect2390"
       width="577.10175"
       height="576.74463"
       x="11.58176"
       y="10.602222"
       rx="90"
       ry="90" />
    <rect
       ry="90"
       rx="90"
       y="11.612374"
       x="11.581718"
       height="576.74463"
       width="577.10175"
       id="rect5264"
       style="opacity:1;fill:none;fill-opacity:0;stroke:none;stroke-width:23.16965866000000000;stroke-linecap:round;stroke-linejoin:miter;stroke-miterlimit:4;stroke-dasharray:none;stroke-dashoffset:0;stroke-opacity:1"
       inkscape:export-filename="P:\TELMA.V20\TELMA.V20_кнопки\Projects\Interfaces\BaseInterface\SelectorModePanel\images\Mouse.png"
       inkscape:export-xdpi="4.8006859"
       inkscape:export-ydpi="4.8006859" />
  </g>
  <g
     inkscape:label="Красная"
     id="layer4"
     inkscape:groupmode="layer">
    <path
       transform="matrix(0.6871166,0,0,0.6666667,-148.67003,-12.408996)"
       d="M 556.42858,190.71428 A 58.214287,60 0 1 1 440.00001,190.71428 A 58.214287,60 0 1 1 556.42858,190.71428 z"
       sodipodi:ry="60"
       sodipodi:rx="58.214287"
       sodipodi:cy="190.71428"
       sodipodi:cx="498.21429"
       id="path12654"
       style="opacity:1;fill:#ff0000;fill-opacity:1;stroke:none;stroke-width:10;stroke-linecap:square;stroke-linejoin:round;stroke-miterlimit:4;stroke-dasharray:none;stroke-dashoffset:0;stroke-opacity:1"
       sodipodi:type="arc" />
  </g>
  <g
     inkscape:label="Узел"
     id="layer3"
     inkscape:groupmode="layer"
     sodipodi:insensitive="true" />
  <g
     style="display:inline"
     inkscape:label="Синяя"
     id="layer5"
     inkscape:groupmode="layer"
     sodipodi:insensitive="true">
    <path
       transform="matrix(0.4307059,-0.9482698,0.9199248,0.3973815,565.21362,156.53262)"
       d="M 24.076354,-195.87691 L 13.572705,-122.92136 L 12.53854,-63.176023 L -45.390996,-108.75023 L -96.614894,-139.51851 L -28.181709,-166.89986 L 24.076354,-195.87691 z"
       inkscape:randomized="0"
       inkscape:rounded="0"
       inkscape:flatsided="false"
       sodipodi:arg2="0.28773554"
       sodipodi:arg1="-0.96046964"
       sodipodi:r2="35.012089"
       sodipodi:r1="76.903938"
       sodipodi:cy="-132.85715"
       sodipodi:cx="-20"
       sodipodi:sides="3"
       id="path3487"
       style="opacity:1;fill:url(#linearGradient3261);fill-opacity:1;stroke:#000000;stroke-width:1;stroke-linecap:round;stroke-miterlimit:4;stroke-dasharray:none;stroke-opacity:1"
       sodipodi:type="star" />
    <path
       sodipodi:nodetypes="cc"
       id="path3489"
       d="M 380.58031,123.18637 L 284.31389,122.5279"
       style="fill:#e60000;fill-opacity:1;fill-rule:nonzero;stroke:url(#linearGradient3273-663);stroke-width:34.64300156;stroke-linecap:square;stroke-linejoin:miter;stroke-miterlimit:4;stroke-dasharray:none;stroke-opacity:1" />
  </g>
  <g
     inkscape:label="Линия"
     id="layer2"
     inkscape:groupmode="layer"
     sodipodi:insensitive="true">
    <path
       sodipodi:nodetypes="cc"
       id="path12704"
       d="M 300.45797,528.58375 L 202.56065,189.2511"
       style="fill:none;fill-rule:evenodd;stroke:#000000;stroke-width:19.79190636;stroke-linecap:round;stroke-linejoin:miter;marker-end:url(#Arrow1Lend);stroke-miterlimit:4;stroke-dasharray:none;stroke-opacity:1" />
  </g>
</svg>

<svg xmlns="http://www.w3.org/2000/svg" width="600" height="600"><defs><linearGradient y2="-164.882" x2="93.662" y1="-114.488" x1="-13.971" id="A" gradientUnits="userSpaceOnUse"><stop offset="0" stop-color="red"/><stop offset="1" stop-color="red" stop-opacity="0"/></linearGradient><marker id="B" refX="0.0" refY="0.0" orient="auto" overflow="visible"><path transform="matrix(-.8 0 0 -.8 -10 0)" d="M0 0l5-5-17.5 5L5 5 0 0z" fill-rule="evenodd" stroke="#000" stroke-width="1pt"/></marker><linearGradient gradientTransform="matrix(0.4886094,-3.0688775,0.4738435,3.1645097,205.26578,110.21985)" y2="118.414" x2="134.685" y1="129.249" x1="124.059" id="C" gradientUnits="userSpaceOnUse"><stop offset="0" stop-color="#e60000"/><stop offset="1" stop-color="#e60000" stop-opacity="0"/></linearGradient></defs><path d="M233.661 114.734a40 40 0 0 1-60.003 34.65 40 40 0 0 1 0-69.3 40 40 0 0 1 60.003 34.65z" fill="red"/><path transform="matrix(.430706 -.94827 .919925 .397382 565.21362 156.53262)" d="M24.076-195.877l-10.504 72.956-1.034 59.745-57.93-45.574-51.224-30.768 68.433-27.381 52.258-28.977z" fill="url(#A)" stroke="#000"/><path d="M380.58 123.186l-96.266-.658" fill="#e60000" stroke="url(#C)" stroke-width="34.643" stroke-linecap="square"/><path d="M300.458 528.584l-97.897-339.333" fill="none" stroke="#000" stroke-width="19.792" stroke-linecap="round" marker-end="url(#B)"/></svg>
